svg/receipt_text_remove_outline.svg

<svg xmlns="http://www.w3.org/2000/svg" viewBox="0 0 24 24"><path d="M21.12 15.46 19 17.59l-2.12-2.12-1.41 1.41L17.59 19l-2.12 2.12 1.41 1.42L19 20.41l2.12 2.13 1.42-1.42L20.41 19l2.13-2.12zm-7.86 5.28L12 22l-1.5-1.5L9 22l-1.5-1.5L6 22l-1.5-1.5L3 22V2l1.5 1.5L6 2l1.5 1.5L9 2l1.5 1.5L12 2l1.5 1.5L15 2l1.5 1.5L18 2l1.5 1.5L21 2v11.35c-.63-.22-1.3-.35-2-.35V5H5v14h8c0 .57.1 1.22.26 1.74M14.54 15c-.54.58-.93 1.25-1.19 2H6v-2zM6 11h12v2H6zm0-4h12v2H6z"/></svg>

<svg xmlns="http://www.w3.org/2000/svg" id="mdi-receipt-text-remove-outline" viewBox="0 0 24 24"><path d="M21.12 15.46L19 17.59L16.88 15.47L15.47 16.88L17.59 19L15.47 21.12L16.88 22.54L19 20.41L21.12 22.54L22.54 21.12L20.41 19L22.54 16.88L21.12 15.46M13.26 20.74L12 22L10.5 20.5L9 22L7.5 20.5L6 22L4.5 20.5L3 22V2L4.5 3.5L6 2L7.5 3.5L9 2L10.5 3.5L12 2L13.5 3.5L15 2L16.5 3.5L18 2L19.5 3.5L21 2V13.35C20.37 13.13 19.7 13 19 13V5H5V19H13C13 19.57 13.1 20.22 13.26 20.74M14.54 15C14 15.58 13.61 16.25 13.35 17H6V15H14.54M6 11H18V13H6V11M6 7H18V9H6V7Z" /></svg>
